src/icons/signal-weak.svg

<svg xmlns="http://www.w3.org/2000/svg" width="512" height="512" viewBox="0 0 512 512">
    <path d="M140 320H40v120h100zm160-120H200v240h100V200zm-20 20v200h-60V220h60zM460 80H360v360h100V80zm-20 20v320h-60V100h60z"/>
</svg>

<?xml version="1.0" encoding="UTF-8"?>
<svg width="512px" height="512px" viewBox="0 0 512 512" version="1.1" xmlns="http://www.w3.org/2000/svg" xmlns:xlink="http://www.w3.org/1999/xlink">
    <title>signal-weak</title>
    <g id="signal-weak" stroke="none" stroke-width="1" fill="none" fill-rule="evenodd">
        <polygon id="Path" fill="#000000" fill-rule="nonzero" points="140 320 40 320 40 440 140 440"></polygon>
        <path d="M300,200 L200,200 L200,440 L300,440 L300,200 Z M280,220 L280,420 L220,420 L220,220 L280,220 Z" id="Rectangle-Copy" fill="#000000" fill-rule="nonzero"></path>
        <path d="M460,80 L360,80 L360,440 L460,440 L460,80 Z M440,100 L440,420 L380,420 L380,100 L440,100 Z" id="Rectangle-Copy-2" fill="#000000" fill-rule="nonzero"></path>
    </g>
</svg>
